Resources/Public/Images/Icons/Glyphicons/remove.svg

<svg xmlns="http://www.w3.org/2000/svg" width="32" height="32"><path d="M24.1 3.1l4.7 4.8c.2.1.3.3.3.5s-.1.3-.2.5L21.7 16l7.1 7.1c.1.1.2.3.2.5s0 .4-.1.5l-4.7 4.7c-.1.1-.3.2-.5.2s-.3-.1-.5-.2L16 21.7l-7.1 7.1c-.1.1-.3.2-.5.2s-.4 0-.5-.1l-4.7-4.7c-.2-.2-.3-.4-.3-.6s.1-.3.2-.5l7.1-7.1-7.1-7.1c-.1-.2-.2-.3-.2-.5s.1-.4.2-.5l4.7-4.7c.2-.2.4-.3.6-.3s.3.1.5.2l7.1 7.1 7.1-7.1c.1-.1.3-.2.5-.2s.4.1.5.2z"/></svg>

<?xml version="1.0" encoding="utf-8"?>
<!-- Generator: Adobe Illustrator 22.1.0, SVG Export Plug-In . SVG Version: 6.00 Build 0)  -->
<svg version="1.1" id="Ebene_1" xmlns="http://www.w3.org/2000/svg" xmlns:xlink="http://www.w3.org/1999/xlink" x="0px" y="0px"
	 width="32px" height="32px" viewBox="0 0 32 32" style="enable-background:new 0 0 32 32;" xml:space="preserve">
<path d="M24.1,3.1l4.7,4.8C29,8,29.1,8.2,29.1,8.4c0,0.2-0.1,0.3-0.2,0.5L21.7,16l7.1,7.1c0.1,0.1,0.2,0.3,0.2,0.5S29,24,28.9,24.1
	l-4.7,4.7c-0.1,0.1-0.3,0.2-0.5,0.2c-0.2,0-0.3-0.1-0.5-0.2L16,21.7l-7.1,7.1c-0.1,0.1-0.3,0.2-0.5,0.2S8,29,7.9,28.9l-4.7-4.7
	C3,24,2.9,23.8,2.9,23.6s0.1-0.3,0.2-0.5l7.1-7.1L3.1,8.9C3,8.7,2.9,8.6,2.9,8.4S3,8,3.1,7.9l4.7-4.7C8,3,8.2,2.9,8.4,2.9
	S8.7,3,8.9,3.1l7.1,7.1l7.1-7.1c0.1-0.1,0.3-0.2,0.5-0.2S24,3,24.1,3.1L24.1,3.1z"/>
</svg>
